!! 00000] TT[WS
!!!OTL: Chuan menzi
!!!ARE: Asia, China, Shanxi Pingjie
!! Ethnic Group: Han
!! WII, 103 (1)
!!!SCT: J0549
!!!YEM: Copyright 1995, estate of Helmut Schaffrath.
**kern
*ICvox
*Ivox
*M4/4
*k[f#c#g#]
*A:
{8b
4ee
8ee
8.dd
16cc#
4b
=1
8b
4ee
8ee
8.dd
16cc#
4b
=2
8cc#
4ee
8b
8cc#
8b
8a
8g#
=3
8.f#
16e
8f#
8g#
2e}
=4
{8b
8cc#
4b
8.cc#
16a
8g#
8f#
=5
4e
4ee
8.dd
16cc#
4b
=6
8cc#
4ee
8b
8cc#
8b
8.a
16g#
=7
8.f#
16e
16f#
16e
16f#
16a
2e}
==
!!!AGN: Xiaodiao. Qingge, Sichun
!!!ONB: ESAC (Essen Associative Code) Database: CHINA
!!!AMT: simple quadruple
!!!AIN: vox
!!!EED: Helmut Schaffrath
!!!EEV: 1.0
*-
